transit-connection-variant.svg

<svg fill="currentColor" viewBox="0 0 24 24"><path d="M18 11h-3.18C14.4 9.84 13.3 9 12 9s-2.4.84-2.82 2H6c-.33 0-2-.1-2-2V8c0-1.83 1.54-2 2-2h10.18C16.6 7.16 17.7 8 19 8a3 3 0 0 0 3-3 3 3 0 0 0-3-3c-1.3 0-2.4.84-2.82 2H6C4.39 4 2 5.06 2 8v1c0 2.94 2.39 4 4 4h3.18c.42 1.16 1.52 2 2.82 2s2.4-.84 2.82-2H18c.33 0 2 .1 2 2v1c0 1.83-1.54 2-2 2H7.82C7.4 16.84 6.3 16 5 16a3 3 0 0 0-3 3 3 3 0 0 0 3 3c1.3 0 2.4-.84 2.82-2H18c1.61 0 4-1.07 4-4v-1c0-2.93-2.39-4-4-4m1-7a1 1 0 0 1 1 1 1 1 0 0 1-1 1 1 1 0 0 1-1-1 1 1 0 0 1 1-1M5 20a1 1 0 0 1-1-1 1 1 0 0 1 1-1 1 1 0 0 1 1 1 1 1 0 0 1-1 1"/></svg>

<svg  viewBox="0 0 24 24" fill="currentColor"><path  d="M18,11H14.82C14.4,9.84 13.3,9 12,9C10.7,9 9.6,9.84 9.18,11H6C5.67,11 4,10.9 4,9V8C4,6.17 5.54,6 6,6H16.18C16.6,7.16 17.7,8 19,8A3,3 0 0,0 22,5A3,3 0 0,0 19,2C17.7,2 16.6,2.84 16.18,4H6C4.39,4 2,5.06 2,8V9C2,11.94 4.39,13 6,13H9.18C9.6,14.16 10.7,15 12,15C13.3,15 14.4,14.16 14.82,13H18C18.33,13 20,13.1 20,15V16C20,17.83 18.46,18 18,18H7.82C7.4,16.84 6.3,16 5,16A3,3 0 0,0 2,19A3,3 0 0,0 5,22C6.3,22 7.4,21.16 7.82,20H18C19.61,20 22,18.93 22,16V15C22,12.07 19.61,11 18,11M19,4A1,1 0 0,1 20,5A1,1 0 0,1 19,6A1,1 0 0,1 18,5A1,1 0 0,1 19,4M5,20A1,1 0 0,1 4,19A1,1 0 0,1 5,18A1,1 0 0,1 6,19A1,1 0 0,1 5,20Z"/></svg>
